public/icons/twitter.svg

<svg xmlns="http://www.w3.org/2000/svg" shape-rendering="geometricPrecision" text-rendering="geometricPrecision" image-rendering="optimizeQuality" fill-rule="evenodd" clip-rule="evenodd" viewBox="0 0 512 462.799"><path fill="#fff" fill-rule="nonzero" d="M403.229 0h78.506L310.219 196.04 512 462.799H354.002L230.261 301.007 88.669 462.799h-78.56l183.455-209.683L0 0h161.999l111.856 147.88L403.229 0zm-27.556 415.805h43.505L138.363 44.527h-46.68l283.99 371.278z"/></svg>

<?xml version="1.0" encoding="UTF-8" standalone="no"?>
<!DOCTYPE svg PUBLIC "-//W3C//DTD SVG 1.1//EN" "http://www.w3.org/Graphics/SVG/1.1/DTD/svg11.dtd">
<svg width="100%" height="100%" viewBox="0 0 800 800" version="1.1" xmlns="http://www.w3.org/2000/svg" xmlns:xlink="http://www.w3.org/1999/xlink" xml:space="preserve" xmlns:serif="http://www.serif.com/" style="fill-rule:evenodd;clip-rule:evenodd;stroke-linejoin:round;stroke-miterlimit:2;">
    <g transform="matrix(1,0,0,1,144,168.601)">
        <path d="M403.229,0L481.735,0L310.219,196.04L512,462.799L354.002,462.799L230.261,301.007L88.669,462.799L10.109,462.799L193.564,253.116L0,0L161.999,0L273.855,147.88L403.229,0ZM375.673,415.805L419.178,415.805L138.363,44.527L91.683,44.527L375.673,415.805Z" style="fill:white;fill-rule:nonzero;"/>
    </g>
</svg>
